X: 4705
T: Boys Of 25, The
R: reel
M: 4/4
K: Dmajor
=cAAF G2 AB|=cABG Ad d2|=cAAF G2 eg|fdec AddB|
=cAAF G2 AB|=cABG Ad d2|=cAAF G2 eg|fdec Adde|
f3 g a2 ag|fefg afde|fgaf g2 ag|fdec Adde|
f3 g a2 ag|fefg afde|fgaf g2 ag|fdec Ad d2|

